X: 127
T: Mache fu zhige
L: 1/16
M: 4/4
K: Ab
F F F A A2 A2 B c B A A2 F2 [I:setbarnb 1]| 
F A A A A B c AB4z4 | 
c c c B c2 c2 c e c B A2 F2 | 
F A B c A B G2F4z4 | 
f g f e f2 f2 e e =d e e2 e2 | 
e e =d e f2 e _dc4z4 | 
d c e f e d c2 c> d c B A2 G A | 
B2 c A B2 A GF4z4 |]

@@@ Tune index: 8795
